X: 21
M: 6/4
L: 1/8
K: D
d4d2 a4a2 | f3ef2 d3ed2 | e3fe2 a3b ag | f6 e6 ||
d4d2 a4a2 | f3ef2 d2e2f2 | g3ag2 f3ef2 | e2d2e2




